src/pos-icons/format-textbox.svg

<svg height="24" viewBox="0 0 24 24" width="24" xmlns="http://www.w3.org/2000/svg"><path d="m21 7v-4h-4v1h-10v-1h-4v4h1v10h-1v4h4v-1h10v1h4v-4h-1v-10zm-3-3h2v2h-2zm-14 0h2v2h-2zm2 16h-2v-2h2zm14 0h-2v-2h2zm-2-3h-1v1h-10v-1h-1v-10h1v-1h10v1h1zm-2-9v2h-3v6h-2v-6h-3v-2z"/></svg>

<?xml version="1.0" encoding="UTF-8"?><!DOCTYPE svg PUBLIC "-//W3C//DTD SVG 1.1//EN" "http://www.w3.org/Graphics/SVG/1.1/DTD/svg11.dtd"><svg xmlns="http://www.w3.org/2000/svg" xmlns:xlink="http://www.w3.org/1999/xlink" version="1.1" id="mdi-format-textbox" width="24" height="24" viewBox="0 0 24 24"><path d="M21,7V3H17V4H7V3H3V7H4V17H3V21H7V20H17V21H21V17H20V7H21M18,4H20V6H18V4M4,4H6V6H4V4M6,20H4V18H6V20M20,20H18V18H20V20M18,17H17V18H7V17H6V7H7V6H17V7H18V17M16,8V10H13V16H11V10H8V8H16Z" /></svg>
